X:490
T: Out on the Ocean
M: 6/8
L: 1/8
R: Jig
K: G
E|D2B BAG|BdB ABA|GED G2A|BdB AGE|
D2B BAG|BdB ABA|GED G2A|BGG G2 :|
B/d/|ege edB|ege edB|ded def|gfe dBA|
G2A B2d|ege dBA|GED G2A|BGG G2 :|
